X: 43
T:Fain I would
M:6/8
L:1/8
K:F
g2 B ^f2 c|g2 d b2 d|a2 g g>ag |f3 f2 d/2e/2|f>gf e d2|c3 d3|c2 B B>cA|B3 B2:|
|:F|F2 G A2 B|c3 c2 A|d2 c B>cd/2e/2|f3 f>gf|e d2 c2 B|A3 b3|a2 d g>a^f|g3 g2:|

